src/assets/outline/DocumentText.svg

<?xml version="1.0" encoding="UTF-8"?>
<svg width="24" height="24" viewBox="0 0 24 24" xmlns="http://www.w3.org/2000/svg">
 <path d="m16 22.75h-8c-3.65 0-5.75-2.1-5.75-5.75v-10c0-3.65 2.1-5.75 5.75-5.75h8c3.65 0 5.75 2.1 5.75 5.75v10c0 3.65-2.1 5.75-5.75 5.75zm-8-20c-2.86 0-4.25 1.39-4.25 4.25v10c0 2.86 1.39 4.25 4.25 4.25h8c2.86 0 4.25-1.39 4.25-4.25v-10c0-2.86-1.39-4.25-4.25-4.25h-8z"/>
 <path d="m18.5 9.25h-2c-1.52 0-2.75-1.23-2.75-2.75v-2c0-0.41 0.34-0.75 0.75-0.75s0.75 0.34 0.75 0.75v2c0 0.69 0.56 1.25 1.25 1.25h2c0.41 0 0.75 0.34 0.75 0.75s-0.34 0.75-0.75 0.75z"/>
 <path d="m12 13.75h-4c-0.41 0-0.75-0.34-0.75-0.75s0.34-0.75 0.75-0.75h4c0.41 0 0.75 0.34 0.75 0.75s-0.34 0.75-0.75 0.75z"/>
 <path d="m16 17.75h-8c-0.41 0-0.75-0.34-0.75-0.75s0.34-0.75 0.75-0.75h8c0.41 0 0.75 0.34 0.75 0.75s-0.34 0.75-0.75 0.75z"/>
</svg>

<svg width="24" height="24" viewBox="0 0 24 24"  xmlns="http://www.w3.org/2000/svg">
<path d="M16 22.75H8C4.35 22.75 2.25 20.65 2.25 17V7C2.25 3.35 4.35 1.25 8 1.25H16C19.65 1.25 21.75 3.35 21.75 7V17C21.75 20.65 19.65 22.75 16 22.75ZM8 2.75C5.14 2.75 3.75 4.14 3.75 7V17C3.75 19.86 5.14 21.25 8 21.25H16C18.86 21.25 20.25 19.86 20.25 17V7C20.25 4.14 18.86 2.75 16 2.75H8Z" />
<path d="M18.5 9.25H16.5C14.98 9.25 13.75 8.02 13.75 6.5V4.5C13.75 4.09 14.09 3.75 14.5 3.75C14.91 3.75 15.25 4.09 15.25 4.5V6.5C15.25 7.19 15.81 7.75 16.5 7.75H18.5C18.91 7.75 19.25 8.09 19.25 8.5C19.25 8.91 18.91 9.25 18.5 9.25Z" />
<path d="M12 13.75H8C7.59 13.75 7.25 13.41 7.25 13C7.25 12.59 7.59 12.25 8 12.25H12C12.41 12.25 12.75 12.59 12.75 13C12.75 13.41 12.41 13.75 12 13.75Z" />
<path d="M16 17.75H8C7.59 17.75 7.25 17.41 7.25 17C7.25 16.59 7.59 16.25 8 16.25H16C16.41 16.25 16.75 16.59 16.75 17C16.75 17.41 16.41 17.75 16 17.75Z" />
</svg>
